assets/save-alt.svg

<svg xmlns="http://www.w3.org/2000/svg" fill="none" viewBox="0 0 22 18">
  <path stroke="#2A2238" stroke-linecap="round" stroke-width="1.5" d="M1 7v9.697c0 .404 20 .404 20 0V7"/>
  <path fill="#2A2238" d="M11.75 1c0-.414214-.3358-.75-.75-.75s-.75.335786-.75.75h1.5Zm-1.2803 12.5303c.2929.2929.7677.2929 1.0606 0l4.773-4.77294c.2929-.29289.2929-.76777 0-1.06066s-.7678-.29289-1.0607 0L11 11.9393 6.75736 7.6967c-.29289-.29289-.76777-.29289-1.06066 0s-.29289.76777 0 1.06066l4.773 4.77294ZM10.25 1v12h1.5V1h-1.5Z"/>
</svg>

<svg width="22" height="18" viewBox="0 0 22 18" fill="none" xmlns="http://www.w3.org/2000/svg">
<path d="M1 7C1 7 1 16.2929 1 16.697C1 17.101 21 17.101 21 16.697C21 16.2929 21 7 21 7" stroke="#2A2238" stroke-width="1.5" stroke-linecap="round"/>
<path d="M11.75 1C11.75 0.585786 11.4142 0.25 11 0.25C10.5858 0.25 10.25 0.585786 10.25 1L11.75 1ZM10.4697 13.5303C10.7626 13.8232 11.2374 13.8232 11.5303 13.5303L16.3033 8.75736C16.5962 8.46447 16.5962 7.98959 16.3033 7.6967C16.0104 7.40381 15.5355 7.40381 15.2426 7.6967L11 11.9393L6.75736 7.6967C6.46447 7.40381 5.98959 7.40381 5.6967 7.6967C5.40381 7.98959 5.40381 8.46447 5.6967 8.75736L10.4697 13.5303ZM10.25 1L10.25 13L11.75 13L11.75 1L10.25 1Z" fill="#2A2238"/>
</svg>
